assets/images/icons/star-icon.svg

<svg width="256" height="304" viewBox="0 0 256 304" fill="none" xmlns="http://www.w3.org/2000/svg">
<path d="M126.331 68.0477L113.599 2M149.142 50.5411L157.364 17.3846M149.142 216.324L166.648 302M126.331 242.584L120.761 278.393M201.659 112.004L252.32 85.5544M61.6123 112.004L4.32031 76.0053M36.6797 125.342H9.62513M74.3438 191.39L25.2743 232.504M207.229 178.241L246.22 198.04M133.829 112.004L174.848 76.0053L162.615 132.163L212.269 146.202L162.615 160.242L174.848 198.04L137.787 178.241L101.806 227.199L106.124 168.881L36.6797 156.642L95.5631 132.163L84.1751 78.8852L133.829 112.004Z" stroke="#E7D101" stroke-width="13"/>
</svg>

<svg xmlns="http://www.w3.org/2000/svg" width="256" height="304" fill="none"><path stroke="#E7D101" stroke-width="13" d="M126.331 68.048 113.599 2m35.543 48.541 8.222-33.156m-8.222 198.939L166.648 302m-40.317-59.416-5.57 35.809m80.898-166.389 50.661-26.45m-190.708 26.45L4.32 76.005m32.36 49.337H9.625m64.719 66.048-49.07 41.114m181.955-54.263 38.991 19.799m-112.391-86.036 41.019-35.999-12.233 56.158 49.654 14.039-49.654 14.04 12.233 37.798-37.061-19.799-35.981 48.958 4.318-58.318-69.444-12.239 58.883-24.479-11.388-53.278z"/></svg>
